fonts/kmap-icons/SVG_edits/events.svg

<?xml version="1.0" encoding="utf-8"?>
<!-- Generated by IcoMoon.io -->
<!DOCTYPE svg PUBLIC "-//W3C//DTD SVG 1.1//EN" "http://www.w3.org/Graphics/SVG/1.1/DTD/svg11.dtd">
<svg version="1.1" xmlns="http://www.w3.org/2000/svg" xmlns:xlink="http://www.w3.org/1999/xlink" width="32" height="32" viewBox="0 0 32 32">
<g>
</g>
	<path d="M7 11v14h17v-14h-17zM22 23h-13v-10h13v10z" fill="#000000" />
	<path d="M9 19v-2h13v2h-13z" fill="#000000" />
	<path d="M12 13h2v10h-2v-10z" fill="#000000" />
	<path d="M17 13h2v10h-2v-10z" fill="#000000" />
	<path d="M11 11h-2v-4h2v4z" fill="#000000" />
	<path d="M22 11h-2v-4h2v4z" fill="#000000" />
</svg>

<?xml version="1.0" encoding="utf-8"?>
<!-- Generator: Adobe Illustrator 14.0.0, SVG Export Plug-In . SVG Version: 6.00 Build 43363)  -->
<!DOCTYPE svg PUBLIC "-//W3C//DTD SVG 1.1//EN" "http://www.w3.org/Graphics/SVG/1.1/DTD/svg11.dtd">
<svg version="1.1" id="Layer_1" xmlns="http://www.w3.org/2000/svg" xmlns:xlink="http://www.w3.org/1999/xlink" x="0px" y="0px"
	 width="32px" height="32px" viewBox="0 0 32 32" enable-background="new 0 0 32 32" xml:space="preserve">
<path fill-rule="evenodd" clip-rule="evenodd" fill="#231F20" d="M7,11v14h17V11H7z M22,23H9V13h13V23z"/>
<path fill-rule="evenodd" clip-rule="evenodd" fill="#231F20" d="M9,19v-2h13v2H9"/>
<path fill-rule="evenodd" clip-rule="evenodd" fill="#231F20" d="M12,13h2v10h-2V13"/>
<path fill-rule="evenodd" clip-rule="evenodd" fill="#231F20" d="M17,13h2v10h-2V13"/>
<path fill-rule="evenodd" clip-rule="evenodd" fill="#231F20" d="M11,11H9V7h2V11"/>
<path fill-rule="evenodd" clip-rule="evenodd" fill="#231F20" d="M22,11h-2V7h2V11"/>
</svg>
